X: 130259
T: Maids of Selma
S: Jimmy Keane
Z: B.Black
R: jig
M: 6/8
L: 1/8
K: G
D | G2 E EDE | GFG e3 | d2 B BAG | AcB AGE |
G2 E EDE | GFG e3 | dBB BAG | ABA G2 :|
A | d^cd gfg | ege edB | d^cd g2 a | b2 e edB |
GBd gfg | ege edB | d^cd g2 a | b3 a3 |
gfg efg | f2 d d^cd | e2 B B2 A | G2 E EDE |
G2 E EDE | GFG e3 | dBB BAG | ABA G2 :|
